X: 02098
T: PAUL'S JIG
C: Bob McQuillen '75
B: Bob's Note Book 1&2 #98
R: jig
Z: 2019 John Chambers <jc:trillian.mit.edu>
M: 6/8
L: 1/8
K: G
d \
| gdc Bdd | gdc BGd | gfg eag | fdd d2d |\
| Bdd cee | dgg faa | gde dcA | BGG G2 :|
|: d \
| ded dBG | gag gfe | def gfg | aba aBc |\
| ded dBd | bag gfe | def gdc | BGG G2 :|
%%begintext align
%% for Paul Richardson
%%endtext
